X: 25578
T: Market Day, The
R: reel
M: 4/4
K: Dmajor
|:.g.f.e|.d.c {B}AG FDDE|FFFG AB{c}BA|.d.c{B}AG FDDg|fdec d2:|
(3ABc|defg {b}afed|(3.B.c.d ef {a}gcec|defg ~a2 fd|fa {b}ag (3.g.f.e dc|
defg {b}afdA|(3.B.c.d ef ~g2fg|af (3.g.f.e fde|(3.B.c.d eg fdec|

